X: 1
T:WHEN THE SAINTS GO MARCHING IN  "SAINTMAR"
M:C
L:1/8
Q:80
C:TRAD2/16
S:MARCH
K:HP
[| {g}cd|
{gef}e4{A}eA{g}cd|
{gef}e4{A}eA{g}cd|  !
{gef}e2c2{g}A2{d}c2|
{g}B4{GdGe}B2{gcd}cB|
{g}A2-A{GAG}A{g}c2e2|  !
{gef}ed-d2{c}d2{g}cd|
{gef}e2c2{g}A2{d}B2|
{G}A4{GAG}A{g}A{g}cd|  !
{gef}e4{A}eA{g}cd|
{gef}e4{A}eA{g}cd|
{gef}e2a2e2{g}c2|  !
{g}B4{GdGe}B2{gcd}cB|
{g}A2-A{GAG}A{g}c2e2|
{gef}ed-d2{c}d2{g}cd|  !
{gef}e2c2{g}A2{d}B2|
{G}A4{GAG}A2|]
